Default.style/cinema.svg

<svg width="30" height="30" xmlns="http://www.w3.org/2000/svg"><path d="M0 30V0h30v30H0ZM4 2H2v2h2V2Zm0 4H2v2h2V6Zm0 4H2v2h2v-2Zm0 4H2v2h2v-2Zm0 4H2v2h2v-2Zm0 4H2v2h2v-2Zm0 4H2v2h2v-2ZM24 2H6v12h18V2Zm0 14H6v12h18V16Zm4-14h-2v2h2V2Zm0 4h-2v2h2V6Zm0 4h-2v2h2v-2Zm0 4h-2v2h2v-2Zm0 4h-2v2h2v-2Zm0 4h-2v2h2v-2Zm0 4h-2v2h2v-2Z" fill="#888" fill-rule="evenodd"/></svg>

<?xml version="1.0" encoding="UTF-8" standalone="no"?>
<svg width="30px" height="30px" viewBox="0 0 30 30" version="1.1" xmlns="http://www.w3.org/2000/svg" xmlns:xlink="http://www.w3.org/1999/xlink" xmlns:sketch="http://www.bohemiancoding.com/sketch/ns">
    <!-- Generator: Sketch 3.2.2 (9983) - http://www.bohemiancoding.com/sketch -->
    <title>movie</title>
    <desc>Created with Sketch.</desc>
    <defs></defs>
    <g id="p" stroke="none" stroke-width="1" fill="none" fill-rule="evenodd" sketch:type="MSPage">
        <g id="movie" sketch:type="MSLayerGroup" fill="#888888">
            <path d="M0,30 L0,0 L12,0 L14,0 L16,0 L18,0 L30,0 L30,30 L0,30 L0,30 Z M4,2 L2,2 L2,4 L4,4 L4,2 L4,2 Z M4,6 L2,6 L2,8 L4,8 L4,6 L4,6 Z M4,10 L2,10 L2,12 L4,12 L4,10 L4,10 Z M4,14 L2,14 L2,16 L4,16 L4,14 L4,14 Z M4,18 L2,18 L2,20 L4,20 L4,18 L4,18 Z M4,22 L2,22 L2,24 L4,24 L4,22 L4,22 Z M4,26 L2,26 L2,28 L4,28 L4,26 L4,26 Z M24,2 L6,2 L6,14 L24,14 L24,2 L24,2 Z M24,16 L6,16 L6,28 L24,28 L24,16 L24,16 Z M28,2 L26,2 L26,4 L28,4 L28,2 L28,2 Z M28,6 L26,6 L26,8 L28,8 L28,6 L28,6 Z M28,10 L26,10 L26,12 L28,12 L28,10 L28,10 Z M28,14 L26,14 L26,16 L28,16 L28,14 L28,14 Z M28,18 L26,18 L26,20 L28,20 L28,18 L28,18 Z M28,22 L26,22 L26,24 L28,24 L28,22 L28,22 Z M28,26 L26,26 L26,28 L28,28 L28,26 L28,26 Z" id="Shape" sketch:type="MSShapeGroup"></path>
        </g>
    </g>
</svg>
